X:460
T: Cashenbridge
S: B.Breathnach:"Ceol Rince na hEireann" IV/93 (gan ainm)
Z: B.Black
L: 1/8
M: 2/4
Q: 280
R: polka
K: D
aA A^G/A/|Bg g>f|gB cB|Af ff/g/|
aA A^G/A/|Bg g>f|gB cB/c/|ed d2 :|
K: A
e^d/e/ f2|e^d/e/ c2|e^d/e/ fe/f/|gc c2|
e^d/e/ f2|e^d/e/ c2|dc BA|a2 a2 :|
